X: 10572
Q: "Slow time."
M: C
L: 1/16
K: F
|:\
|:\
f3gf3d c3dc3A | f3gf3d c3d G3c |
f3gf3d c3dc3A | d3ef3d (dc)BA G4 :|\
|:\
f3g gfed c3d dcBA | f3g gfed ca3A3c |\
f3ad3f c3df3Ha | agfe gfed dcBA GBA"^D.C."G :|


